!!!OTL: Love Me and the World Is Mine
!!!COM: Ball, Ernest
!!!LAR: Thorne, Frank
!! "Love Me and the World Is Mine" by Ernest Ball, arranged by Frank Thorne,
!! from "Close Harmony Classics for Barbershop Quartets" B. Feldman & Co.;
!! copyright 1916 & 1952 by M Witmark & Sons; pp. 16-17;
!! NOTE:  There is a change of meter from 4/4 to 12/8 at measure 16.
!!        In C major until measure 25 where it changes to D major;
**kern	**kern	**kern	**kern
*Ivox	*Ivox	*Ivox	*Ivox
*M4/4	*M4/4	*M4/4	*M4/4
*C:	*C:	*C:	*C:
8D	8B	8G	8f
=1	=1	=1	=1
4.C	4.G	4.c	4.e
8C	8G	8c	8e
8E	8G	8B	8e
8E	8B	8G	8e
8E	8c	8A	8e
8E	8G	8B	8e
=2	=2	=2	=2
4A	[2c	[2A	[2e
4G	.	.	.
4G-	4c]	4A]	4e]
4r	4r	4E	4r
=3	=3	=3	=3
4.D	4.B	4.G	4.f
8D	8B	8G#	8f
8D	8B	8A	8f
8D	8Gn	8B	8f
8D	8B	8A	8f
8GG	8B	8D	8f
=4	=4	=4	=4
4C	4c	[2Gn	4e
4E	4B-	.	4c#
4.D	4.Bn	4.G]	4.f
8D	8B	8G	8f
=5	=5	=5	=5
4.C	4.G	4.c	4.e
8C	8G	8c	8e
8E	8G	8B	8e
8E	8B	8G	8e
8E	8c	8A	8e
8E	8G	8B	8e
=6	=6	=6	=6
4A	[2c	[2A	[2e
4G	.	.	.
4F#	4c]	4A]	4e]
8r	8r	8r	8r
8F#	8c	8A	8e
=7	=7	=7	=7
4.F#	4.A	4.B	4.d#
8F#	8A	8B	8d#
8F#	8A	8B	8d#
8BB	8A	8F#	8d#
8BB	8A	8G	8d#
8BB	8F#	8A	8d#
=8	=8	=8	=8
4E	4G	[2B	4e
4E-	4A	.	4f#
4D;	4G;	4B;]	4fn;
8D	8B	8G	8f
8D#	8A	8F#	8c
=9	=9	=9	=9
4.GG	4.B	4.Fn	4.d
8D	8B	8G	8f
8D	8B	8A	8f
8D	8G	8B	8f
8G;	8B;	8e;	8g;
8G	8B	8d	8f
=10	=10	=10	=10
4.C	4.G	4.E	4.c
8C	8c	8G	8e
8C	8c	8A	8e
8E	8G	8B	8e
16G	16B	16d	16f
8.C;	8.G;	8.c;	8.e;
=11	=11	=11	=11
4.GG	4.B	4.F	4.d
8D	8B	8G	8f
8D	8B	8A	8f
8D	8G	8B	8f
8D	8B	8A	8f
8D	8G	8B	8f
=12	=12	=12	=12
4F	[2c	[2A	[2e-
8G	.	.	.
8F	.	.	.
4C	4c]	4G]	4en]
8C	8c	8G	8e
8D#	8A	8F#	8c
=13	=13	=13	=13
4.GG	4.B	4.Fn	4.d
8Dn	8B	8G	8f
8D	8B	8A	8f
8D	8G	8B	8f
8G;	8B;	8e;	8g;
8G	8B	8d	8f
=14	=14	=14	=14
4.C	4.G	4.E	4.c
8C	8c	8G	8e
8C	8c	8A	8e
8E	8G	8B	8e
8E;	8B;	8d;	8g#;
8AA;	8e;	8c;	8a;
=15	=15	=15	=15
4.GG	4.d	4.B	4.gn
8C	8G	8c	8e
8D	8G	8B	8d
8G	8B	8D	8d
8D	8c	8A	8f#
8D	8d	8B	8f#
=16	=16	=16	=16
*M12/8	*M12/8	*M12/8	*M12/8
4.F	[2.B	[2.G	4.d
4.E	.	.	4.e
[4.D	4.B_	4.G_	[4.fn
4D]	4B]	4G]	4f]
8D	8B	8G	8f
=17	=17	=17	=17
[4.C	[4.G	[4.c	[4.e
4C]	4G]	4c]	4e]
8C	8B	8G	8e
4C	4B-	4G	4e
8C	8B-	8G	8e
4C	4c	4A	4e
8C	8G	8B-	8e
=18	=18	=18	=18
2.F	2.c	[2.A	2.f
[4.E	[4.c#	4.A_	[4.g
4E]	4c#]	4A]	4g]
8E	8c#	8A	8g
=19	=19	=19	=19
[4.A	[4.cn	[4.d	[4.f#
4A]	4c]	4d]	4f#]
8D	8c	8A	8f#
4D	4c	4A	4f#
8D	8c	8A	8f#
4F#	4A	4B	4d#
8F#	8A	8c	8d#
=20	=20	=20	=20
[2.E	[2.G#	[2.B	4.e
.	.	.	4.e-
4E]	4G#]	4B]	4d
8r	8r	8r	8r
4.D	4.B	4.Gn	4.fn
=21	=21	=21	=21
4.C	4.c	4.G	4.e
4.F#	4.c	4.A	4.d#
4.Dn	4.G	4.B	4.fn
4.G	4.B-	4.c	4.e
=22	=22	=22	=22
4.Fn	4.c	4.f	4.a
4Bn	4.d	4.e	4.g#
8B-	.	.	.
2.A	2.c#	2.e	2.gn
=23	=23	=23	=23
8A	8cn	8dn	8f#
[4D	[4c	[4A	[4f
8D]	8c]	8A]	8f]
8D	8G#	8B	8fn
8D	8A	8c	8f#
8A	4.c	[4.d	8f#
4A-	.	.	[4fn
4Gn	4B	4d]	4f]
8Fn	8An	8c	8d#
=24	=24	=24	=24
4.C	4.G	4.c	4.e
4.G	4.B-	4.c	4.e
4.E	4.A	4.c#	4.g
4.E	4.A	4.c#	4.g
=25	=25	=25	=25
!! change of key to D major
*D:	*D:	*D:	*D:
[4.D	[4.A	[4.d	[4.f#
4D]	4A]	4d]	4f#]
8D	8c#	8A	8f#
4D	4cn	4A	4f#
8D	8c	8A	8f#
4D	4d	4B	4f#
8D	8A	8cn	8f#
=26	=26	=26	=26
2.G	2.d	[2.B	2.g
[4.F#	[4.d#	4.B_	[4.a
4F#]	4d#]	4B]	4a]
8F#	8d#	8B	8a
=27	=27	=27	=27
[4.B	[4.dn	[4.e	[4.g#
4B]	4d]	4e]	4g#]
8E	8d	8G	8g#
4E	4d	4B	4g#
8E	8d	8B	8g#
4G#	4B	4c#	4fn
8G#	8B	8d	8f
=28	=28	=28	=28
[2.F#	[2.A#	[2.c#	4.f#
.	.	.	4.fn
4F#]	4A#]	4c#]	4e
8r	8r	8r	8r
4.E	4.c#	4.An	4.g
=29	=29	=29	=29
4.D	4.d	4.A	4.f#
4.G#	4.d	4.B	4.fn
4.E	4.A	4.c#	4.g
4.A	4.cn	4.d	4.f#
=30	=30	=30	=30
4.G	4.d	4.g	4.b
4c	4.e	4.f#	4.a#
8c	.	.	.
2.B	2.d#	2.f#	2.an
=31	=31	=31	=31
8B	8dn	8e	8g#
[4E	[4d	[4B	[4g#
8E]	8d]	8B]	8g#]
8E	8A#	8c#	8gn
8E	8B	8d	8g#
8B	4.d	[4.e	8g#
4B-	.	.	[4gn
4An	4c#	4e]	4g]
8G	8Bn	8d	8fn
=32	=32	=32	=32
4.F#	4.c	[2.d	4.a
4.Fn	4.B	.	4.a-
4.E	4.B-	2.d_;	4.g
4.D;	4.A;	.	4.f#;
==	==	==	==
*-	*-	*-	*-
